svg/logo/wechat_fill.svg

<?xml version="1.0" encoding="UTF-8"?>
<svg width="24px" height="24px" viewBox="0 0 24 24" version="1.1" xmlns="http://www.w3.org/2000/svg" xmlns:xlink="http://www.w3.org/1999/xlink">
    <title>wechat_fill</title>
    <g id="页面-1" stroke="none" stroke-width="1" fill="none" fill-rule="evenodd">
        <g id="Brand" transform="translate(-816.000000, -48.000000)">
            <g id="wechat_fill" transform="translate(816.000000, 48.000000)">
                 <path d="M24,0 L24,24 L0,24 L0,0 L24,0 Z M12.5934901,23.257841 L12.5819402,23.2595131 L12.5108777,23.2950439 L12.4918791,23.2987469 L12.4918791,23.2987469 L12.4767152,23.2950439 L12.4056548,23.2595131 C12.3958229,23.2563662 12.3870493,23.2590235 12.3821421,23.2649074 L12.3780323,23.275831 L12.360941,23.7031097 L12.3658947,23.7234994 L12.3769048,23.7357139 L12.4804777,23.8096931 L12.4953491,23.8136134 L12.4953491,23.8136134 L12.5071152,23.8096931 L12.6106902,23.7357139 L12.6232938,23.7196733 L12.6232938,23.7196733 L12.6266527,23.7031097 L12.609561,23.275831 C12.6075724,23.2657013 12.6010112,23.2592993 12.5934901,23.257841 L12.5934901,23.257841 Z M12.8583906,23.1452862 L12.8445485,23.1473072 L12.6598443,23.2396597 L12.6498822,23.2499052 L12.6498822,23.2499052 L12.6471943,23.2611114 L12.6650943,23.6906389 L12.6699349,23.7034178 L12.6699349,23.7034178 L12.678386,23.7104931 L12.8793402,23.8032389 C12.8914285,23.8068999 12.9022333,23.8029875 12.9078286,23.7952264 L12.9118235,23.7811639 L12.8776777,23.1665331 C12.8752882,23.1545897 12.8674102,23.1470016 12.8583906,23.1452862 L12.8583906,23.1452862 Z M12.1430473,23.1473072 C12.1332178,23.1423925 12.1221763,23.1452606 12.1156365,23.1525954 L12.1099173,23.1665331 L12.0757714,23.7811639 C12.0751323,23.7926639 12.0828099,23.8018602 12.0926481,23.8045676 L12.108256,23.8032389 L12.3092106,23.7104931 L12.3186497,23.7024347 L12.3186497,23.7024347 L12.3225043,23.6906389 L12.340401,23.2611114 L12.337245,23.2485176 L12.337245,23.2485176 L12.3277531,23.2396597 L12.1430473,23.1473072 Z" id="MingCute" fill-rule="nonzero"></path>
                <path d="M16,10 C19.1536,10 22,12.1859 22,15.213 C22,16.9087 21.0792,18.366 19.7399,19.2931 C19.6961,19.558 19.7321,19.8253 19.7321,20.0917 C19.7321,20.5934 19.3304,21 18.8349,21 C18.1551,21 17.525,20.7758 16.9918,20.3553 C16.6686,20.4019 16.3373,20.426 16,20.426 C12.8464,20.426 10,18.2401 10,15.213 C10,12.1859 12.8464,10 16,10 Z M9.5,3 C13.2774,3 16.6488,5.5354 16.9743,9.0623 C16.6519,9.02108 16.3262,9 16,9 C12.4669,9 9,11.4729 9,15.2089 C9,15.5631 9.03117,15.906 9.0906,16.2365 C8.77649,16.2216 8.46717,16.1896 8.16389,16.1416 C7.49325,16.691 6.72062,17 5.85417,17 C5.3364,17 4.91667,16.5661 4.91667,16.0308 L4.92128981,15.8333185 L4.92128981,15.8333185 L4.938295,15.4358 C4.942735,15.2371 4.93443,15.0394 4.88345,14.8468 C3.16999,13.6654 2,11.7933 2,9.62308 C2,5.8073 5.52517,3 9.5,3 Z M14,13 C13.4477,13 13,13.4477 13,14 C13,14.5523 13.4477,15 14,15 C14.5523,15 15,14.5523 15,14 C15,13.4477 14.5523,13 14,13 Z M18,13 C17.4477,13 17,13.4477 17,14 C17,14.5523 17.4477,15 18,15 C18.5523,15 19,14.5523 19,14 C19,13.4477 18.5523,13 18,13 Z M7,6 C6.44772,6 6,6.44772 6,7 C6,7.55228 6.44772,8 7,8 C7.55228,8 8,7.55228 8,7 C8,6.44772 7.55228,6 7,6 Z M12,6 C11.4477,6 11,6.44772 11,7 C11,7.55228 11.4477,8 12,8 C12.5523,8 13,7.55228 13,7 C13,6.44772 12.5523,6 12,6 Z" id="形状" fill="#09244B"></path>
            </g>
        </g>
    </g>
</svg>

<svg xmlns="http://www.w3.org/2000/svg" width="24" height="24"><g fill="none" fill-rule="evenodd"><path d="M24 0v24H0V0h24ZM12.593 23.258l-.011.002-.071.035-.02.004-.014-.004-.071-.035c-.01-.004-.019-.001-.024.005l-.004.01-.017.428.005.02.01.013.104.074.015.004.012-.004.104-.074.012-.016.004-.017-.017-.427c-.002-.01-.009-.017-.017-.018Zm.265-.113-.013.002-.185.093-.01.01-.003.011.018.43.005.012.008.007.201.093c.012.004.023 0 .029-.008l.004-.014-.034-.614c-.003-.012-.01-.02-.02-.022Zm-.715.002a.023.023 0 0 0-.027.006l-.006.014-.034.614c0 .012.007.02.017.024l.015-.002.201-.093.01-.008.004-.011.017-.43-.003-.012-.01-.01-.184-.092Z"/><path fill="#09244B" d="M16 10c3.154 0 6 2.186 6 5.213 0 1.696-.92 3.153-2.26 4.08-.044.265-.008.532-.008.799a.903.903 0 0 1-.897.908c-.68 0-1.31-.224-1.843-.645-.323.047-.655.071-.992.071-3.154 0-6-2.186-6-5.213S12.846 10 16 10ZM9.5 3c3.777 0 7.149 2.535 7.474 6.062A7.686 7.686 0 0 0 16 9c-3.533 0-7 2.473-7 6.209 0 .354.031.697.09 1.027a8.506 8.506 0 0 1-.926-.094c-.67.549-1.443.858-2.31.858-.518 0-.937-.434-.937-.97l.004-.197.017-.397a2.103 2.103 0 0 0-.055-.59C3.17 13.667 2 11.794 2 9.624 2 5.807 5.525 3 9.5 3ZM14 13a1 1 0 1 0 0 2 1 1 0 0 0 0-2Zm4 0a1 1 0 1 0 0 2 1 1 0 0 0 0-2ZM7 6a1 1 0 1 0 0 2 1 1 0 0 0 0-2Zm5 0a1 1 0 1 0 0 2 1 1 0 0 0 0-2Z"/></g></svg>
